X: 482
%
U:~=!turn!
T: Mrs. MacInroy of Lude
C:Joseph Lowe
O:Scotland
B:Keith Norman MacDonald : "The Skye collection of the best reels & strathspeys extant" : 1887
Z:Ralph Palmer
R:Strathspey
M:C
L:1/8
K:B Aeolian
c2 | B>bb>^a b<ff>^g | {/g}a>fe>a c<A f/e/d/c/ | B<bb>^a b<ff<b | {/^g}a>f{/f}e>c B/B/B ~B :|
f | d<Bf>B b>Bf>B | c<Ae>c a>A f/e/d/c/ | d<B~f>B b>Bf<b | {/^g}a>f{/f}e<c B/B/B B>f |
d<B~f>B b>Bf>B | c<Ae>c a>Ae>c | (3Bcd (3cde (3def (3efg | (3fed (3edc d<BB |]


